X:1
T:Title
%%score { 1 | 2 }
L:1/8
M:4/4
K:D
V:1 treble nm="Grand Piano"
V:2 bass 
V:1
 z4 z2[Q:1/4=100] [A,FA]2 | [A,EA]2 [CEG]2 [DF]2 [B,EG]2 | [A,CE]6 [DB]2 | %3
 [A,DA]2 [B,EG]2 [DF]2 [A,CE]2 |[M:3/4] [A,DF]6 |[M:1/4] [Fd]2 |[M:4/4] [Gc]2 e2 d2 c2 | %7
 [Dd]2 G2 F2 E2 | A2 B2 F2 [CE]2 |[M:3/4] D6 |] %10
V:2
 z4 z2 D,2 | C,2 A,,2 B,,2 G,,2 | A,,6 G,2 | F,2 G,2 A,2 A,,2 |[M:3/4] D,6 |[M:1/4] [B,,B,]2 | %6
[M:4/4] [E,B,]2 [G,B,E]2 [F,B,F]2 [F,^A,E]2 | [B,,B,]2 [B,D]2 [A,D]2 [G,A,C]2 | %8
 [F,A,D]2 [G,D]2 [A,D]2 [A,,G,]2 |[M:3/4] [D,F,]6 |] %10

